X:11110
T:Monferrina
C:Tre Martelli: Omi e Paiz 7b
M:6/8
L:1/8
K:C
GAB|cBc GAB|cBc GAB|cBc edc|B3 ABc|\
d^cd AB=c|d^cd AB=c|d^cd fed|c3:|
|:e2d|c2G GAc|B2A d2c|BcB ABA|G3 e2d|\
c2G GAc|B2A d2c|BcB AGB|c3:|
